svg/balloon.svg

<svg xmlns="http://www.w3.org/2000/svg" viewBox="0 0 24 24"><path d="M13.16 12.74 14 14h-1.5c-.15 2.71-.5 5.41-1 8.08l-1-.16c.5-2.62.84-5.26 1-7.92H10l.84-1.26C8.64 11.79 7 8.36 7 6a5 5 0 0 1 5-5 5 5 0 0 1 5 5c0 2.36-1.64 5.79-3.84 6.74"/></svg>

<?xml version="1.0" encoding="UTF-8"?><!DOCTYPE svg PUBLIC "-//W3C//DTD SVG 1.1//EN" "http://www.w3.org/Graphics/SVG/1.1/DTD/svg11.dtd"><svg xmlns="http://www.w3.org/2000/svg" xmlns:xlink="http://www.w3.org/1999/xlink" version="1.1" id="mdi-balloon" width="24" height="24" viewBox="0 0 24 24"><path d="M13.16,12.74L14,14H12.5C12.35,16.71 12,19.41 11.5,22.08L10.5,21.92C11,19.3 11.34,16.66 11.5,14H10L10.84,12.74C8.64,11.79 7,8.36 7,6A5,5 0 0,1 12,1A5,5 0 0,1 17,6C17,8.36 15.36,11.79 13.16,12.74Z" /></svg>
